X: 134
T: No_90_Song_for_Men_Who_Prepare_Drum_(a).krn
N: Derived from No_90_Song_for_Men_Who_Prepare_Drum_(a).krn
%%abc-version 2.0
%%abcx-abcm2ps-target-version 5.9.1 (29 Sep 2008)
%%abc-creator hum2abc beta
%%abcx-conversion-date 2019/03/15 08:35:45
%%humdrum-veritas 635833415
%%humdrum-veritas-data 95409769
%%linebreak <none>
%%barnumbers 0
L: 1/8
M: 3/4
K: C clef=bass
[K:clef=bass][M:3/4](3DDD D3/C/C2 | 
(3CCC C3/A,/ A, z | 
(3DDD D3/C/C2 | 
(3CCC C3/A,/ A, z | 
(3CCC C3/A,/A,2 [I:setbarnb 6]| 
(3A,G,G, G,3/D,/ D, z | 
(3A,A,A, A,3/E,/E,2 | 
(3E,D,D, D,3/C,/C,2 | 
(3C,C,C, C,3/A,,/ A,, z | 
(3C,C,C, D,3/C,/ C, z | 
(3C,C,C, C,3/A,,/ A,,A,, ||  
[M:2/4]A,,4 | 
z2z z/ C/ :|]  



